assets/icons/notification-24.svg

<svg width="24" height="24" viewBox="0 0 24 24" fill="none" xmlns="http://www.w3.org/2000/svg">
<path fill-rule="evenodd" clip-rule="evenodd" d="M12 2C7.58172 2 4 5.58172 4 10L4 16H3C2.44772 16 2 16.4477 2 17C2 17.5523 2.44772 18 3 18H21C21.5523 18 22 17.5523 22 17C22 16.4477 21.5523 16 21 16H20V10C20 5.58172 16.4183 2 12 2ZM6 16V10C6 6.68629 8.68629 4 12 4C15.3137 4 18 6.68629 18 10V16H6Z" fill="#F2F2F2"/>
<path d="M14.9589 19.4979C14.7217 20.9178 13.4872 22 12 22C10.5128 22 9.2783 20.9178 9.04113 19.4979C8.99563 19.2255 9.22386 19 9.5 19H14.5C14.7761 19 15.0044 19.2255 14.9589 19.4979Z" fill="#F2F2F2"/>
</svg>

<svg xmlns="http://www.w3.org/2000/svg" width="24" height="24" viewBox="0 0 24 24"><path fill-rule="evenodd" d="M12 2a8 8 0 00-8 8v6H3a1 1 0 100 2h18a1 1 0 100-2h-1v-6a8 8 0 00-8-8zM6 16v-6a6 6 0 1112 0v6H6z"/><path d="M14.959 19.498a3 3 0 01-5.918 0c-.045-.273.183-.498.459-.498h5c.276 0 .504.226.459.498z"/></svg>
